X: 4732
T: Boys Of Ballisodare, The
R: reel
M: 4/4
K: Dmixolydian
dG (3GGG dGeG|dG (3GGG BA A2|dG (3GGG dedB|AcBA GE D2|
dG (3GGG dGeG|dG (3GGG BA A2|Bdd^c dedB|AcBA GE D2||
(3gag ga bgaf|(3gag ga bgef|(3gag ga bgaf|gfed (3B^cd ef|
(3gag ga bgaf|(3gag ga bgef|bgaf gedB|AcBA GE D2||
B d3 (3B^cd gd|(3B^cd gd BA A2|Bdd^c dedB|AcBA GE D2|
B d3 (3B^cd gd|(3B^cd gd BA A2|eB (3BcB dedc|AcBA GE D2||

